icons/angular/angular-plain.svg

<?xml version="1.0" encoding="UTF-8"?>
<svg xmlns="http://www.w3.org/2000/svg" xmlns:xlink="http://www.w3.org/1999/xlink" viewBox="0 0 128 128" version="1.1">
  <g id="surface1">
    <path style=" stroke:none;fill-rule:nonzero;fill:rgb(0%,0%,0%);fill-opacity:1;" d="M 55.296875 69.324219 L 72.703125 69.324219 L 64 48.382812 Z M 55.296875 69.324219 M 64 15.359375 L 16.332031 32.359375 L 23.601562 95.386719 L 64 117.761719 L 104.398438 95.386719 L 111.667969 32.359375 Z M 93.746094 93.492188 L 82.636719 93.492188 L 76.644531 78.539062 L 51.355469 78.539062 L 45.363281 93.492188 L 34.253906 93.492188 L 64 26.675781 Z M 93.746094 93.492188 "/>
  </g>
</svg>

<svg xmlns="http://www.w3.org/2000/svg" viewBox="0 0 128 128"><path d="M55.297 69.324h17.406L64 48.383zM64 15.36l-47.668 17 7.27 63.028L64 117.762l40.398-22.375 7.27-63.028zm29.746 78.133h-11.11L76.646 78.54h-25.29l-5.992 14.953h-11.11L64 26.676zm0 0"/></svg>
